projectsedona-adaptive/source/img/background/icon-house.svg

<svg width="38.000000" height="37.000000" viewBox="0 0 38 37" fill="none" xmlns="http://www.w3.org/2000/svg" xmlns:xlink="http://www.w3.org/1999/xlink">
	<desc>
			Created with Pixso.
	</desc>
	<defs/>
	<path id="Vector" d="M14.4015 33.2194L22.7549 33.2194L22.7549 21.0613L14.4015 21.0613L14.4015 33.2194ZM21.2408 31.7441L15.9155 31.7441L15.9155 22.5365L21.1886 22.5365L21.1886 31.7441L21.2408 31.7441Z" fill="#81B3D2" fill-opacity="1.000000" fill-rule="nonzero"/>
	<path id="Vector" d="M36.9317 20.1354L38 19.0621L32.9639 14.0028L32.9639 0.204468L25.9438 0.204468L25.9438 6.95032L18.9746 0L0 19.1133L1.06827 20.1865L5.03614 16.2003L5.03614 35.5179L3.05221 35.5179L3.05221 37L35.5582 37L35.5582 35.5179L32.9639 35.5179L32.9639 16.1492L36.9317 20.1354ZM27.419 1.73755L31.4378 1.73755L31.4378 12.5208L27.419 8.4834L27.419 1.73755ZM31.4886 35.4668L6.56225 35.4668L6.56225 14.6671L18.9746 2.14636L31.4378 14.6671L31.4378 35.4668L31.4886 35.4668Z" fill="#81B3D2" fill-opacity="1.000000" fill-rule="nonzero"/>
	<path id="Vector" d="M14.5582 13.8367C14.5582 16.0242 16.3855 17.8047 18.5783 17.8047C20.8233 17.8047 22.6506 16.0242 22.6506 13.8367C22.6506 11.6493 20.8233 9.91968 18.5783 9.91968C16.3333 9.91968 14.5582 11.6493 14.5582 13.8367ZM18.5783 11.2932C19.9879 11.2932 21.1888 12.4124 21.1888 13.8367C21.1888 15.2102 20.0402 16.3802 18.5783 16.3802C17.1687 16.3802 15.9679 15.2611 15.9679 13.8367C15.9679 12.4633 17.1687 11.2932 18.5783 11.2932Z" fill="#81B3D2" fill-opacity="1.000000" fill-rule="nonzero"/>
	<path id="Vector" d="M7.82324 21.0613L9.38951 21.0613L9.38951 23.0453L7.82324 23.0453L7.82324 21.0613Z" fill="#81B3D2" fill-opacity="1.000000" fill-rule="evenodd"/>
	<path id="Vector" d="M10.9036 21.0613L12.4698 21.0613L12.4698 23.0453L10.9036 23.0453L10.9036 21.0613Z" fill="#81B3D2" fill-opacity="1.000000" fill-rule="evenodd"/>
	<path id="Vector" d="M7.82324 24.1128L9.38951 24.1128L9.38951 26.0968L7.82324 26.0968L7.82324 24.1128Z" fill="#81B3D2" fill-opacity="1.000000" fill-rule="evenodd"/>
	<path id="Vector" d="M10.9036 24.1128L12.4698 24.1128L12.4698 26.0968L10.9036 26.0968L10.9036 24.1128Z" fill="#81B3D2" fill-opacity="1.000000" fill-rule="evenodd"/>
	<path id="Vector" d="M24.478 21.0613L26.0443 21.0613L26.0443 23.0453L24.478 23.0453L24.478 21.0613Z" fill="#81B3D2" fill-opacity="1.000000" fill-rule="evenodd"/>
	<path id="Vector" d="M27.6106 21.0613L29.1769 21.0613L29.1769 23.0453L27.6106 23.0453L27.6106 21.0613Z" fill="#81B3D2" fill-opacity="1.000000" fill-rule="evenodd"/>
	<path id="Vector" d="M24.478 24.1128L26.0443 24.1128L26.0443 26.0968L24.478 26.0968L24.478 24.1128Z" fill="#81B3D2" fill-opacity="1.000000" fill-rule="evenodd"/>
	<path id="Vector" d="M27.6106 24.1128L29.1769 24.1128L29.1769 26.0968L27.6106 26.0968L27.6106 24.1128Z" fill="#81B3D2" fill-opacity="1.000000" fill-rule="evenodd"/>
</svg>

<svg xmlns="http://www.w3.org/2000/svg" width="38" height="37" fill="none" viewBox="0 0 38 37">
  <path fill="#81B3D2" d="M14.4 33.22h8.35V21.06H14.4v12.16Zm6.84-1.48h-5.32v-9.2h5.27v9.2h.05Z"/>
  <path fill="#81B3D2" d="M36.93 20.14 38 19.06 32.96 14V.2h-7.02v6.75L18.97 0 0 19.11l1.07 1.08 3.97-3.99v19.32H3.05V37h32.5v-1.48h-2.59V16.15l3.97 3.99Zm-9.51-18.4h4.02v10.78l-4.02-4.04V1.74Zm4.07 33.73H6.56v-20.8L18.97 2.15l12.47 12.52v20.8h.05Z"/>
  <path fill="#81B3D2" d="M14.56 13.84a4.01 4.01 0 0 0 4.02 3.96 4.03 4.03 0 0 0 4.07-3.96 3.98 3.98 0 0 0-4.07-3.92 3.94 3.94 0 0 0-4.02 3.92Zm4.02-2.55a2.59 2.59 0 0 1 2.6 2.55 2.58 2.58 0 0 1-2.6 2.54 2.59 2.59 0 0 1-2.61-2.54c0-1.38 1.2-2.55 2.6-2.55Z"/>
  <path fill="#81B3D2" fill-rule="evenodd" d="M7.82 21.06H9.4v1.99H7.82v-1.99Zm3.08 0h1.57v1.99H10.9v-1.99Zm-3.08 3.05H9.4v1.99H7.82v-2Zm3.08 0h1.57v1.99H10.9v-2Zm13.58-3.05h1.56v1.99h-1.56v-1.99Zm3.13 0h1.57v1.99H27.6v-1.99Zm-3.13 3.05h1.56v1.99h-1.56v-2Zm3.13 0h1.57v1.99H27.6v-2Z"/>
</svg>
